X:087
%%topmargin 3cm
T:Talisker
C:James Scott Skinner
O:Scotland
B:Keith Norman MacDonald : "The Skye collection of the best reels & strathspeys extant" : 1887
Z:Ralph Palmer
R:Strathspey
M:C
L:1/8
K:A
~A2 A>a e<A c>d | (e>A{/A}a)>e {fa}f>BB>c | A2 A>a e<Ac>e | x x e<a x x A & (d/2c/2B) e>d c>A x x  :|
a | b>ga>f e<ALc>d | (e>A{/A}a)>A {/e}f>BB>a | (b>ga)>f e<A(c>d) | e>A{/A}a>e c>AA>a |
(b/2a/2g) {/g}a>f e<A(c>d) | e>A{/A}a>e {fa}f>BB>c | ~A2 A>a e<Ac>e | d/2c/2B e>d c>A A |]
